X: 17799
T: Hook Lantern, The
R: hornpipe
M: 4/4
K: Dmajor
|:AF|DADE FED z|GFGA BcdB|~A3 B AFDE|FEED ~E2 AF|
DADE FED z|~G3 A BcdB|~A3 B AFDF|1 ~E2 D2 D2:|2 E/F/E D2 D2 FA|
|:dc d/e/f dB A/B/A|BA B/c/d BA A/B/c|dcde dB A/B/A|BAAF ~E3 d|
dcde dB ~A2|BABd BAFE|DADE FAAF|1 E/F/E D2 D2 FA:|2 E/F/E D2 D2|

